img/muffin-white.svg

<svg xmlns="http://www.w3.org/2000/svg" preserveAspectRatio="xMidYMid" width="108.937" height="121.47"><path d="M94.897 79.677c-4.322-.006-8.336-1.967-11.012-5.381l-2.941-3.753-2.779 3.875a14.054 14.054 0 0 1-11.41 5.861 13.906 13.906 0 0 1-8.063-2.57l-3.223-2.283-1.952 3.436c-3.176 5.596-9.135 9.067-15.553 9.058a17.832 17.832 0 0 1-14.858-7.996l-1.568-2.361-2.655.988a13.964 13.964 0 0 1-4.894.873c-7.725-.01-14.003-6.309-13.993-14.04C.003 59.58 3.5 54.462 8.907 52.346l2.323-.909-.066-2.857c.008-5.668 3.122-10.808 8.153-14.582a19.209 19.209 0 0 1-.249-3.092 19.034 19.034 0 0 1 2.857-10.024c-4.564-4.227-9.021-9.88-9.935-16.362a3.973 3.973 0 0 1 3.951-4.531 3.97 3.97 0 0 1 3.917 3.422c.576 4.096 3.86 8.263 7.585 11.701a19.017 19.017 0 0 1 10.78-3.321c8.594.012 15.875 5.721 18.27 13.544a36.829 36.829 0 0 1 10.655-1.543c16.263.022 29.479 10.268 29.462 22.842a17.886 17.886 0 0 1-.104 1.821l-.307 2.932 2.817.862c5.937 1.814 9.922 7.209 9.914 13.426-.01 7.732-6.306 14.012-14.033 14.002ZM38.216 17.356a13.476 13.476 0 0 0-6.2 1.505 50.397 50.397 0 0 0 3.766 2.519 3.976 3.976 0 0 1-4.094 6.815 62.21 62.21 0 0 1-5.434-3.694 13.503 13.503 0 0 0-1.624 6.412c-.01 7.487 6.069 13.584 13.55 13.594 7.481.01 13.576-6.071 13.586-13.558.009-7.484-6.069-13.583-13.55-13.593ZM31.851 92.5s1.146 11.077 1.444 16.394c.114 2.038 1.422 2.951 2.223 3.158.744.192 2.153.182 2.805-.126.907-.43 1.783-.782 1.838-3.277.104-4.651-1.095-15.402-1.095-15.402a24.848 24.848 0 0 0 5.732-.922s.399 15.995.742 18.191c.347 2.227 1.972 2.761 3.454 2.762 1.549 0 3.308-.846 3.281-3.334l-.232-21.006a25.074 25.074 0 0 0 5.702-5.331c.133.063.271.118.404.178 0 0-.375 24.425-.276 26.287.133 2.489 1.778 3.442 3.603 3.445 1.849.002 3.547-1.278 3.796-3.276.231-1.85.701-24.628.701-24.628.263.011.527.024.791.024a21.01 21.01 0 0 0 5.497-.73s-1.451 21.646-1.203 23.271c.346 2.28 1.768 3.282 3.679 3.285 1.817.002 3.391-1.374 3.733-3.805.214-1.521 2.453-27.451 2.453-27.451.091-.08.184-.157.272-.24a20.986 20.986 0 0 0 11.441 4.931l-4.613 29.515c-.607 3.888-4.323 7.065-8.256 7.059l-49.735-.065c-3.934-.005-7.642-3.191-8.239-7.081l-4.576-29.793a21.17 21.17 0 0 0 1.556-.288A24.943 24.943 0 0 0 31.851 92.5Z" style="fill:#fff;fill-rule:evenodd"/></svg>

<svg xmlns="http://www.w3.org/2000/svg" xmlns:xlink="http://www.w3.org/1999/xlink" preserveAspectRatio="xMidYMid" width="108.937" height="121.47" viewBox="0 0 108.937 121.47">
  <defs>
    <style>
      .cls-1 {
        fill: #fff;
        fill-rule: evenodd;
      }
    </style>
  </defs>
  <path d="M94.897,79.677 C90.575,79.671 86.561,77.710 83.885,74.296 L80.944,70.543 L78.165,74.418 C75.529,78.094 71.262,80.285 66.755,80.279 C63.850,80.276 61.062,79.387 58.692,77.709 L55.469,75.426 L53.517,78.862 C50.341,84.458 44.382,87.929 37.964,87.920 C31.979,87.912 26.425,84.923 23.106,79.924 L21.538,77.563 L18.883,78.551 C17.318,79.132 15.672,79.426 13.989,79.424 C6.264,79.414 -0.014,73.115 -0.004,65.384 C0.003,59.580 3.500,54.462 8.907,52.346 L11.230,51.437 L11.164,48.580 C11.172,42.912 14.286,37.772 19.317,33.998 C19.154,32.991 19.067,31.960 19.068,30.906 C19.073,27.231 20.120,23.798 21.925,20.882 C17.361,16.655 12.904,11.002 11.990,4.520 C11.683,2.346 13.196,0.335 15.369,0.029 C15.562,0.002 15.753,-0.012 15.941,-0.011 C17.886,-0.009 19.580,1.429 19.858,3.411 C20.434,7.507 23.718,11.674 27.443,15.112 C30.516,13.014 34.229,11.786 38.223,11.791 C46.817,11.803 54.098,17.512 56.493,25.335 C59.865,24.319 63.461,23.788 67.148,23.792 C83.411,23.814 96.627,34.060 96.610,46.634 C96.609,47.185 96.576,47.781 96.506,48.455 L96.199,51.387 L99.016,52.249 C104.953,54.063 108.938,59.458 108.930,65.675 C108.920,73.407 102.624,79.687 94.897,79.677 ZM38.216,17.356 C35.981,17.353 33.877,17.904 32.016,18.861 C33.369,19.853 34.661,20.706 35.782,21.380 C37.662,22.511 38.270,24.953 37.140,26.834 C36.394,28.077 35.076,28.765 33.725,28.763 C33.030,28.762 32.327,28.579 31.688,28.195 C30.491,27.475 28.511,26.214 26.254,24.501 C25.223,26.412 24.633,28.595 24.630,30.913 C24.620,38.400 30.699,44.497 38.180,44.507 C45.661,44.517 51.756,38.436 51.766,30.949 C51.775,23.465 45.697,17.366 38.216,17.356 ZM31.851,92.500 C31.851,92.500 32.997,103.577 33.295,108.894 C33.409,110.932 34.717,111.845 35.518,112.052 C36.262,112.244 37.671,112.234 38.323,111.926 C39.230,111.496 40.106,111.144 40.161,108.649 C40.265,103.998 39.066,93.247 39.066,93.247 C41.027,93.163 42.946,92.851 44.798,92.325 C44.798,92.325 45.197,108.320 45.540,110.516 C45.887,112.743 47.512,113.277 48.994,113.278 C50.543,113.278 52.302,112.432 52.275,109.944 C52.250,107.668 52.043,88.938 52.043,88.938 C54.191,87.478 56.124,85.690 57.745,83.607 C57.878,83.670 58.016,83.725 58.149,83.785 C58.149,83.785 57.774,108.210 57.873,110.072 C58.006,112.561 59.651,113.514 61.476,113.517 C63.325,113.519 65.023,112.239 65.272,110.241 C65.503,108.391 65.973,85.613 65.973,85.613 C66.236,85.624 66.500,85.637 66.764,85.637 C68.640,85.640 70.485,85.385 72.261,84.907 C72.261,84.907 70.810,106.553 71.058,108.178 C71.404,110.458 72.826,111.460 74.737,111.463 C76.554,111.465 78.128,110.089 78.470,107.658 C78.684,106.137 80.923,80.207 80.923,80.207 C81.014,80.127 81.107,80.050 81.195,79.967 C84.416,82.729 88.384,84.438 92.636,84.898 L88.023,114.413 C87.416,118.301 83.700,121.478 79.767,121.472 L30.032,121.407 C26.098,121.402 22.390,118.216 21.793,114.326 L17.217,84.533 C17.738,84.454 18.258,84.363 18.773,84.245 C22.173,88.342 26.757,91.209 31.851,92.500 Z" class="cls-1"/>
</svg>
